icons/speaker-outline.svg

<svg xmlns="http://www.w3.org/2000/svg" width="24" height="24" viewBox="0 0 24 24">
  <path d="M11.375305,4.21913119 L6.649,8 L4,8 C2.8954305,8 2,8.8954305 2,10 L2,14 L2.00548574,14.1492623 C2.08183488,15.1841222 2.9456382,16 4,16 L6.65,16 L11.375305,19.7808688 C12.0300683,20.3046795 13,19.8385062 13,19 L13,5 C13,4.16149379 12.0300683,3.69532051 11.375305,4.21913119 Z M11,7.079 L11,16.92 L7.62469505,14.2191312 C7.447382,14.0772808 7.2270715,14 7,14 L4,14 L4,10 L7,10 C7.2270715,10 7.447382,9.92271925 7.62469505,9.78086881 L11,7.079 Z"/>
</svg>

<svg xmlns="http://www.w3.org/2000/svg" viewBox="0 0 24 24">
  <path d="M11.38 4.22 6.65 8H4a2 2 0 0 0-2 2v4.15A2 2 0 0 0 4 16h2.65l4.73 3.78A1 1 0 0 0 13 19V5a1 1 0 0 0-1.62-.78zM11 7.08v9.84l-3.38-2.7A1 1 0 0 0 7 14H4v-4h3a1 1 0 0 0 .62-.22L11 7.08z"/>
</svg>
